app/dist/common/images/wesbanco.svg

<svg height="18" width="18" xmlns="http://www.w3.org/2000/svg"><path d="m0 0h18v18h-18z" fill="#3c8952"/><g fill="#fff"><path d="m4 5v2l2.5 3 2.5-3 2.5 3 2.5-3v-2l-2.5 3-2.5-3-2.5 3z"/><path d="m4 8v2l2.51 2.98 2.49-2.98 2.51 3 2.49-3v-2l-2.5 3-2.5-3-2.5 3z"/></g></svg>

<!-- by TradingView --><svg width="18" height="18" xmlns="http://www.w3.org/2000/svg"><path fill="#3C8952" d="M0 0h18v18H0z"/><path d="M4 5v2l2.5 3L9 7l2.5 3L14 7V5l-2.5 3L9 5 6.5 8 4 5z" fill="#fff"/><path d="M4 8v2l2.51 2.98L9 10l2.51 3L14 10V8l-2.5 3L9 8l-2.5 3L4 8z" fill="#fff"/></svg>
